modules/hawcons-filled/icons/icon-36-file-dat.svg

<?xml version="1.0" encoding="UTF-8" standalone="no"?>
<svg width="32px" height="32px" viewBox="0 0 32 32" version="1.1" xmlns="http://www.w3.org/2000/svg" xmlns:xlink="http://www.w3.org/1999/xlink" xmlns:sketch="http://www.bohemiancoding.com/sketch/ns">
    <!-- Generator: Sketch 3.0.3 (7891) - http://www.bohemiancoding.com/sketch -->
    <title>icon 36 file dat</title>
    <desc>Created with Sketch.</desc>
    <defs></defs>
    <g id="Page-1" stroke="none" stroke-width="1" fill="none" fill-rule="evenodd" sketch:type="MSPage">
        <g id="icon-36-file-dat" sketch:type="MSArtboardGroup" fill="#929292">
            <path d="M8.00684834,10 C6.34621185,10 5,11.3422643 5,12.9987856 L5,20.0012144 C5,21.6573979 6.33599155,23 8.00684834,23 L24.9931517,23 C26.6537881,23 28,21.6577357 28,20.0012144 L28,12.9987856 C28,11.3426021 26.6640085,10 24.9931517,10 L8.00684834,10 L8.00684834,10 Z M18,17 L15,17 L15,20 L14,20 L14,16.5 L14,15 C14,13.8877296 14.897616,13 16.0048815,13 L16.9951185,13 C18.1061002,13 19,13.8954305 19,15 L19,17 L19,20 L18,20 L18,17 L18,17 Z M15.9989566,14 C15.4472481,14 15,14.4438648 15,15 L15,16 L18,16 L18,15 C18,14.4477153 17.5573397,14 17.0010434,14 L15.9989566,14 L15.9989566,14 Z M8,13 L8,20 L10.9951185,20 C12.102384,20 13,19.1134452 13,17.9940809 L13,15.0059191 C13,13.8980806 12.1061002,13 10.9951185,13 L8,13 L8,13 Z M9,14 L9,19 L11.0010434,19 C11.5527519,19 12,18.5562834 12,18.0001925 L12,14.9998075 C12,14.4476291 11.5573397,14 11.0010434,14 L9,14 L9,14 Z M22,14 L22,20 L23,20 L23,14 L25,14 L25,13 L20,13 L20,14 L22,14 L22,14 Z" id="file-dat" sketch:type="MSShapeGroup"></path>
        </g>
    </g>
</svg>

<svg width="32" height="32" xmlns="http://www.w3.org/2000/svg"><path d="M8.007 10A3.003 3.003 0 0 0 5 12.999V20A2.996 2.996 0 0 0 8.007 23h16.986A3.003 3.003 0 0 0 28 20.001V13A2.996 2.996 0 0 0 24.993 10H8.007zM18 17h-3v3h-1v-5c0-1.112.898-2 2.005-2h.99A2 2 0 0 1 19 15v5h-1v-3zm-2.001-3A.997.997 0 0 0 15 15v1h3v-1c0-.552-.443-1-.999-1h-1.002zM8 13v7h2.995A1.998 1.998 0 0 0 13 17.994v-2.988A2.003 2.003 0 0 0 10.995 13H8zm1 1v5h2.001A.997.997 0 0 0 12 18v-3c0-.552-.443-1-.999-1H9zm13 0v6h1v-6h2v-1h-5v1h2z" fill="#929292" fill-rule="evenodd"/></svg>
